Gurmukhi/0A67.svg

<svg enable-background="new 0 0 336 592" viewBox="0 0 336 592" xmlns="http://www.w3.org/2000/svg"><path d="m198.41275 308.811249c-5.324615.088562-10.074707 2.163025-15.188705 2.87091-33.019989 4.571015-65.487053-21.546783-68.688683-54.981384-2.932518-30.624328 15.365669-50.960083 31.961281-57.215881 26.441437-9.967224 55.609146-2.204575 68.798248 27.291931 7.217423 16.14122 9.648117 33.201569 9.829071 50.544769.376984 36.132019.150605 72.270539.133301 108.406372-.003006 6.277863-2.08287 7.545288-7.64418 4.782318-4.770844-2.370208-9.410858-5.026062-14.276627-7.175506-3.620132-1.599182-4.625076-4.010346-4.609649-7.821228.089584-22.141663-.05867-44.284271-.314057-66.702301m-11.746704-22.666535c3.636673-1.175872 7.28685-2.312011 10.904419-3.544006 1.878281-.639587 3.038147-1.870087 3.073853-4.048706.199203-12.15033.582718-24.342056-2.27089-36.261612-4.713348-19.687561-20.402099-28.260773-37.489685-20.296005-12.538482 5.844391-20.638351 15.973007-23.310135 29.454849-3.52919 17.808395 5.211258 33.776047 25.045258 36.682541 7.958832 1.16626 15.559494-.444855 24.04718-1.987061z"/></svg>

<svg version="1.1" id="Layer_1" xmlns="http://www.w3.org/2000/svg" xmlns:xlink="http://www.w3.org/1999/xlink" x="0px" y="0px"
	 width="100%" viewBox="0 0 336 592" enable-background="new 0 0 336 592" xml:space="preserve">
<path fill="#000000" opacity="1.000000" stroke="none" 
	d="
M198.412750,308.811249 
	C193.088135,308.899811 188.338043,310.974274 183.224045,311.682159 
	C150.204056,316.253174 117.736992,290.135376 114.535362,256.700775 
	C111.602844,226.076447 129.901031,205.740692 146.496643,199.484894 
	C172.938080,189.517670 202.105789,197.280319 215.294891,226.776825 
	C222.512314,242.918045 224.943008,259.978394 225.123962,277.321594 
	C225.500946,313.453613 225.274567,349.592133 225.257263,385.727966 
	C225.254257,392.005829 223.174393,393.273254 217.613083,390.510284 
	C212.842239,388.140076 208.202225,385.484222 203.336456,383.334778 
	C199.716324,381.735596 198.711380,379.324432 198.726807,375.513550 
	C198.816391,353.371887 198.668137,331.229279 198.412750,308.811249 
M186.666046,286.144714 
	C190.302719,284.968842 193.952896,283.832703 197.570465,282.600708 
	C199.448746,281.961121 200.608612,280.730621 200.644318,278.552002 
	C200.843521,266.401672 201.227036,254.209946 198.373428,242.290390 
	C193.660080,222.602829 177.971329,214.029617 160.883743,221.994385 
	C148.345261,227.838776 140.245392,237.967392 137.573608,251.449234 
	C134.044418,269.257629 142.784866,285.225281 162.618866,288.131775 
	C170.577698,289.298035 178.178360,287.686920 186.666046,286.144714 
z"/>
</svg>
